src/assets/icon.svg

<?xml version="1.0" standalone="no"?>
<!DOCTYPE svg PUBLIC "-//W3C//DTD SVG 20010904//EN" "http://www.w3.org/TR/2001/REC-SVG-20010904/DTD/svg10.dtd">
<svg fill="#000" version="1.0" xmlns="http://www.w3.org/2000/svg" viewBox="0 0 1260 1260">
	<path fill="#323A46" d="M0,90 q0,-90 90,-90 l1080,0 q90,0 90,90 l0,810 q0,90 -90,90 l-810,0 L0,1260 Z" />
	<g>
		<g fill="#CD2C24">
			<path d="M0,90 q0,-90 90,-90 l90,0 l0,270 a90,90 0 1,1 -180,0 Z" />
			<path d="M360,0 l180,0 l0,270 a90,90 0 1,1 -180,0 Z" />
			<path d="M720,0 l180,0 l0,270 a90,90 0 1,1 -180,0 Z" />
			<path d="M1080,0 l90,0 q90,0 90,90 l0,180 a90,90 0 1,1 -180,0 Z" />
		</g>
		<g fill="#F5E5C0">
			<path d="M180,0 l180,0 l0,270 a90,90 0 1,1 -180,0 Z" />
			<path d="M540,0 l180,0 l0,270 a90,90 0 1,1 -180,0 Z" />
			<path d="M900,0 l180,0 l0,270 a90,90 0 1,1 -180,0 Z" />
		</g>
	</g>
	<svg viewBox="0 0 1200 400" width="1060px" x="100px" y="50px" stroke="#FFF" stroke-width="60" stroke-linecap="round"  fill="#FFF" fill-opacity="0">
		<path 
			d="
				M30,480 l0,-450
				m0,150
				a150,150 0 1,0 300,0
				a150,150 0 1,0 -300,0
			"
		/>
		<path d="
			M600,30
			m-150,150
			a150,150 0 1,0 300,0
			a150,150 0 1,0 -300,0
    " /> 
		<path d="
				M1170,70 
				c-25,-15 -75,-40 -150,-40 
				q-150,0 -150,75
				t150,75
				t150,75 
				t-150,75
				c-75,0 -125,-25 -150,-40
			" 
			/>
	</svg>
</svg>

<?xml version="1.0" standalone="no"?>
<!DOCTYPE svg PUBLIC "-//W3C//DTD SVG 20010904//EN" "http://www.w3.org/TR/2001/REC-SVG-20010904/DTD/svg10.dtd">
<svg fill="#000" version="1.0" xmlns="http://www.w3.org/2000/svg" viewBox="0 0 1260 1260">
	<path fill="#323A46" d="M0,90 q0,-90 90,-90 L1170,0 q90,0 90,90 L1260,900 q0,90 -90,90 L360,990 L0,1260 Z" />
	<g>
		<g fill="#CD2C24">
			<path d="M0,90 q0,-90 90,-90 L180,0 L180,270 a90,90 0 1,1 -180,0 Z" />
			<path d="M360,0 L540,0 L540,270 a90,90 0 1,1 -180,0 Z" />
			<path d="M720,0 L900,0 L900,270 a90,90 0 1,1 -180,0 Z" />
			<path d="M1080,0 L1170,0 q90,0 90,90 L1260,270 a90,90 0 1,1 -180,0 Z" />
		</g>
		<g fill="#F5E5C0">
			<path d="M180,0 L360,0 L360,270 a90,90 0 1,1 -180,0 Z" />
			<path d="M540,0 L720,0 L720,270 a90,90 0 1,1 -180,0 Z" />
			<path d="M900,0 L1080,0 L1080,270 a90,90 0 1,1 -180,0 Z" />
		</g>
	</g>
	<svg viewBox="0 0 1200 400" width="1060px" x="100px" y="50px" stroke="#FFF" stroke-width="60" stroke-linecap="round"  fill="#FFF" fill-opacity="0">
		<path 
			d="
				M30,480 l0,-450
				m0,150
				a150,150 0 1,0 300,0
				a150,150 0 1,0 -300,0
			"
		/>
		<path d="
			M600,30
			m-150,150
			a150,150 0 1,0 300,0
			a150,150 0 1,0 -300,0
    " /> 
		<path d="
				M1170,70 
				c-25,-15 -75,-40 -150,-40 
				q-150,0 -150,75
				t150,75
				t150,75 
				t-150,75
				c-75,0 -125,-25 -150,-40
			" 
			/>
	</svg>
</svg>
